X:1
T: Beaux of Oak Hill Hornpipe
C:
R:Reel
Q:232
K:D
M:4/4
L:1/8
|:dB|AF DF A2dc|BA Bd e2de|fg fe fg fe|de fd B2dB|
AF DF A2dc|BA Bd e2de|fg fe df ag|f2d2 d2:|
|:fg|af df a2gf|gf ga b2ag|fg ag fg fe|de fd B2dB|
AF DF A2dc|BA Bd e2de|fg fe df ag|f2d2 d2:|
